X: 36087
T: Scattery Island
R: jig
M: 6/8
K: Dmajor
d/d/B|:A2 F FEF|AFF FdB|A2F FEF|DB,B, B,dB|
A2 F FEF|AFF FEF|Bcd cBA|1 B3 BdB:|2 B3 B2c||
|:ddA def|eed c2A|ABd cBA|BBA EFA|
ddA def|eed c2A|Bcd cBA|1 B3 B2c:|2 B3 FdB||

